images/form-templates/lock.svg

<svg width="21" height="24" viewBox="0 0 21 24" fill="none" xmlns="http://www.w3.org/2000/svg">
<g clip-path="url(#clip0_1864_13628)">
<path d="M0 12C0 10.3453 1.34297 9 3 9H18C19.6547 9 21 10.3453 21 12V21C21 22.6547 19.6547 24 18 24H3C1.34297 24 0 22.6547 0 21V12Z" fill="#4199FD"/>
<path opacity="0.4" d="M10.5 3C8.42812 3 6.75 4.67906 6.75 6.75V9H3.75V6.75C3.75 3.02203 6.77344 0 10.5 0C14.2266 0 17.25 3.02203 17.25 6.75V9H14.25V6.75C14.25 4.67906 12.5719 3 10.5 3Z" fill="#4199FD"/>
</g>
<defs>
<clipPath id="clip0_1864_13628">
<rect width="21" height="24" fill="white"/>
</clipPath>
</defs>
</svg>

<svg xmlns="http://www.w3.org/2000/svg" width="21" height="24" fill="none" viewBox="0 0 21 24"><g fill="#4199FD" clip-path="url(#a)"><path d="M0 12a3 3 0 0 1 3-3h15a3 3 0 0 1 3 3v9a3 3 0 0 1-3 3H3a3 3 0 0 1-3-3v-9Z"/><path d="M10.5 3a3.75 3.75 0 0 0-3.75 3.75V9h-3V6.75a6.75 6.75 0 0 1 13.5 0V9h-3V6.75A3.75 3.75 0 0 0 10.5 3Z" opacity=".4"/></g><defs><clipPath id="a"><path fill="#fff" d="M0 0h21v24H0z"/></clipPath></defs></svg>
